docs/icons/kaifa.baidu.svg

<svg xmlns="http://www.w3.org/2000/svg" xmlns:xlink="http://www.w3.org/1999/xlink" width="42" height="42" fill="none" xmlns:v="https://vecta.io/nano"><defs><path id="A" transform="matrix(1 0 0 1 0 0)" d="M0 31.75h31.75V0H0v31.75z"/></defs><g transform="translate(5 5.127)"><mask id="B" fill="#fff"><use xlink:href="#A"/></mask><g mask="url(#B)"><path fill-rule="evenodd" transform="matrix(1 0 0 1 0 -.000176)" d="M27.597 15.877a11.73 11.73 0 0 0-11.72-11.73 11.73 11.73 0 0 0-11.73 11.73 11.73 11.73 0 0 0 11.73 11.72c6.47 0 11.72-5.25 11.72-11.72zM4.65 27.1c1.45 1.45 3.15 2.6 5.04 3.4 1.96.83 4.04 1.25 6.18 1.25s4.22-.42 6.18-1.25a20.52 20.52 0 0 0 .46-.21 1.8 1.8 0 0 0 1.05-1.79c-.02-.25-.02-.5 0-.75a4.98 4.98 0 0 1 4.6-4.6 5.42 5.42 0 0 1 .57 0c.76.03 1.47-.39 1.76-1.08 0-.01.01-.01.01-.02.82-1.96 1.25-4.04 1.25-6.18s-.43-4.22-1.25-6.18c-.8-1.89-1.95-3.58-3.4-5.04-1.46-1.46-3.16-2.6-5.05-3.4C20.09.42 18.01 0 15.87 0s-4.22.42-6.18 1.25a15.68 15.68 0 0 0-5.04 3.4 15.79 15.79 0 0 0-3.4 5.04C.42 11.65 0 13.73 0 15.87s.42 4.22 1.25 6.18c.8 1.89 1.94 3.59 3.4 5.05z" fill="#0d3cfb"/></g><g fill-rule="evenodd"><path d="M28.496 24.594c-1.93 0-3.5 1.57-3.5 3.5 0 1.94 1.57 3.51 3.5 3.51a3.5 3.5 0 1 0 0-7.01z" fill="#e10602"/><path d="M16.881 20.907a1.52 1.52 0 0 0 2.27 1.308l4.412-2.546a2.52 2.52 0 0 0 1.252-2.185V14.26c.007-.898-.474-1.732-1.259-2.178l-4.405-2.553a1.52 1.52 0 0 0-2.27 1.308v1.584c.007.672.361 1.294.94 1.633l3.041 1.754-3.033 1.747a1.9 1.9 0 0 0-.948 1.64v1.711zm-8.699-1.238l4.412 2.546a1.52 1.52 0 0 0 2.27-1.308v-1.711a1.9 1.9 0 0 0-.948-1.64l-3.033-1.747 3.041-1.754a1.91 1.91 0 0 0 .94-1.633v-1.584a1.52 1.52 0 0 0-2.27-1.308l-4.405 2.553c-.785.445-1.266 1.28-1.259 2.178v3.224a2.52 2.52 0 0 0 1.252 2.185z" fill="#0d3cfb"/></g></g></svg>

<svg xmlns="http://www.w3.org/2000/svg" xmlns:xlink="http://www.w3.org/1999/xlink" width="42" height="42" viewBox="0 0 42 42" fill="none"><defs><path id="path_0"
        transform="translate(0 0) rotate(0 15.872753426695986 15.872665244732504)"
        d="M0,31.75L31.75,31.75L31.75,0L0,0L0,31.75Z" /></defs><g opacity="1" transform="translate(0.000012890624930150807 -0.00010000000020227162)  rotate(0 21 21)"><g opacity="1" transform="translate(5 5.127334755267384)  rotate(0 16 15.872665244732504)"><g opacity="1" transform="translate(0 0)  rotate(0 15.872753426695986 15.872665244732504)"><g opacity="1" transform="translate(0 0)  rotate(0 15.872753426695986 15.872665244732504)"><mask id="mask-0" fill="white"><use xlink:href="#path_0"></use></mask><g mask="url(#mask-0)"></g><g mask="url(#mask-0)"><path id="Fill-1" fill-rule="evenodd" style="fill:#0D3CFB" transform="translate(0 -0.00017636392691901774)  rotate(0 15.872753426695986 15.872753426695986)" opacity="1" d="M27.5972 15.8772C27.5972 9.3972 22.3472 4.1472 15.8772 4.1472C9.3972 4.1472 4.1472 9.3972 4.1472 15.8772C4.1472 22.3472 9.3972 27.5972 15.8772 27.5972C22.3472 27.5972 27.5972 22.3472 27.5972 15.8772Z M4.65 27.1C6.1 28.55 7.8 29.7 9.69 30.5C11.65 31.33 13.73 31.75 15.87 31.75C18.01 31.75 20.09 31.33 22.05 30.5C22.21 30.43 22.36 30.36 22.51 30.29C23.21 29.97 23.62 29.26 23.56 28.5C23.54 28.25 23.54 28 23.56 27.75C23.73 25.3 25.71 23.32 28.16 23.15C28.35 23.14 28.55 23.14 28.73 23.15C29.49 23.18 30.2 22.76 30.49 22.07C30.49 22.06 30.5 22.06 30.5 22.05C31.32 20.09 31.75 18.01 31.75 15.87C31.75 13.73 31.32 11.65 30.5 9.69C29.7 7.8 28.55 6.11 27.1 4.65C25.64 3.19 23.94 2.05 22.05 1.25C20.09 0.42 18.01 0 15.87 0C13.73 0 11.65 0.42 9.69 1.25C7.8 2.05 6.1 3.19 4.65 4.65C3.19 6.11 2.05 7.8 1.25 9.69C0.42 11.65 0 13.73 0 15.87C0 18.01 0.42 20.09 1.25 22.05C2.05 23.94 3.19 25.64 4.65 27.1Z " /></g></g></g><path id="Fill-3" fill-rule="evenodd" style="fill:#E10602" transform="translate(24.99570664065299 24.59377325110365)  rotate(0 3.5021466796735066 3.502587589490912)" opacity="1" d="M3.5,0C1.57,0 0,1.57 0,3.5C0,5.44 1.57,7.01 3.5,7.01C5.44,7.01 7,5.44 7,3.5C7,1.57 5.44,0 3.5,0Z " /><path id="Fill-5" fill-rule="evenodd" style="fill:#0D3CFB" transform="translate(13.603418092967734 10.127298417110808)  rotate(45.000000000000014 5.745414010137824 5.745442856261179)" opacity="1" d="M7.56,11.05C8.38,11.87 9.79,11.49 10.09,10.37L11.41,5.45C11.64,4.58 11.39,3.66 10.75,3.02L8.47,0.74C7.84,0.1 6.91,-0.15 6.04,0.09L1.12,1.4C0,1.7 -0.38,3.11 0.44,3.93L1.56,5.05C2.04,5.52 2.73,5.71 3.38,5.54L6.77,4.63L5.86,8.01C5.69,8.67 5.87,9.36 6.35,9.84L7.56,11.05Z " /><path id="Fill-7" fill-rule="evenodd" style="fill:#0D3CFB" transform="translate(6.651229484582554 10.127173536607168)  rotate(45.000000000000014 5.745226409132014 5.745414010137825)" opacity="1" d="M5.45,11.41L10.37,10.09C11.49,9.79 11.87,8.38 11.05,7.56L9.84,6.35C9.36,5.87 8.67,5.69 8.01,5.86L4.63,6.77L5.54,3.38C5.71,2.73 5.52,2.04 5.05,1.56L3.93,0.44C3.11,-0.38 1.7,0 1.4,1.12L0.09,6.04C-0.15,6.91 0.1,7.84 0.74,8.47L3.02,10.75C3.66,11.39 4.58,11.64 5.45,11.41Z " /></g></g></svg>
